public/assets/apply/stepper/partner.svg

<svg width="74" height="74" viewBox="0 0 74 74" fill="none" xmlns="http://www.w3.org/2000/svg">
<path d="M35.9016 0.57783L35.4102 1.06924V4.69697C35.4102 8.65713 35.468 8.9751 36.2051 9.30752C36.8988 9.62549 37.5492 9.4665 38.0406 8.84502C38.2719 8.57041 38.3008 8.13681 38.3008 4.89931C38.3008 0.968064 38.2574 0.650096 37.5637 0.288768C36.9133 -0.0436544 36.4363 0.0430641 35.9016 0.57783Z" fill="#4A4A4A"/>
<path d="M12.2707 0.93916C11.9383 1.27158 11.8516 1.48838 11.8516 1.97978C11.8516 2.60127 11.8805 2.63018 14.8578 5.60752L17.8641 8.61377H18.5289C19.2516 8.61377 19.8586 8.16572 19.9742 7.55869C20.1187 6.77822 19.8152 6.37354 16.8668 3.43955C13.9617 0.563378 13.9039 0.52002 13.3113 0.52002C12.8199 0.52002 12.6031 0.606738 12.2707 0.93916Z" fill="#4A4A4A"/>
<path d="M59.4602 0.93916C59.1566 1.17041 57.7402 2.51455 56.3383 3.94541C53.8523 6.46025 53.7656 6.57588 53.7656 7.13955C53.7656 7.55869 53.8668 7.84775 54.1414 8.16572C54.4594 8.5415 54.6184 8.61377 55.182 8.61377H55.8469L58.8531 5.60752C61.8305 2.63018 61.8594 2.60127 61.8594 1.97978C61.8594 1.48838 61.7727 1.27158 61.4402 0.93916C60.8766 0.375488 60.2117 0.375488 59.4602 0.93916Z" fill="#4A4A4A"/>
<path d="M31.1176 12.1403C30.7996 12.2414 30.3227 12.4727 30.0914 12.6461C29.6867 12.9207 29.5855 12.9352 28.9062 12.7907C26.6371 12.2993 24.0934 13.7301 23.2695 15.9559C23.0238 16.6063 22.966 17.0254 23.0094 17.9649L23.0527 19.1356L22.5469 19.2946C21.7664 19.5258 20.6824 20.2918 20.2055 20.9567C19.3816 22.084 19.1648 22.7344 19.1648 24.1797V25.495L18.3988 25.8129C17.3582 26.2465 16.332 27.2004 15.8262 28.2266C15.4359 28.9782 15.3926 29.2094 15.3926 30.4379C15.3926 31.6375 15.4359 31.8977 15.7828 32.5481L16.1586 33.2996L15.566 33.5598C14.6555 33.9645 13.5281 35.1786 13.1379 36.1758C12.6609 37.4188 12.6898 38.9075 13.2102 40.0493C13.427 40.5262 13.8027 41.1332 14.0629 41.3934L14.5109 41.8559L12.1406 44.2551C10.0594 46.3219 9.7125 46.6254 9.39453 46.5676C7.74688 46.2063 7.47227 46.1774 6.67734 46.3508C5.34766 46.6254 4.79844 46.9868 2.80391 48.9957C0.476953 51.3371 0.216797 51.7852 0.216797 53.6352C0.216797 55.543 0.491406 56.02 3.07852 58.5782C5.0875 60.5871 5.17422 60.645 5.7668 60.645C6.59063 60.645 7.22656 60.0524 7.22656 59.2719C7.22656 58.7805 7.06758 58.5637 5.21758 56.6703C2.34141 53.7364 2.34141 53.6352 4.97188 50.9903L6.73516 49.227H7.47227C8.12266 49.227 8.31055 49.2993 8.91758 49.7907C9.29336 50.0942 13.0367 53.7942 17.2426 58C22.9949 63.7668 24.9027 65.7758 25.0039 66.1371C25.2641 67.0621 25.0039 67.5246 23.1684 69.3457C21.3039 71.1813 20.8414 71.427 19.902 71.0368C19.6562 70.9356 18.5578 69.9817 17.4738 68.9266C15.6672 67.1633 15.4504 67.0043 14.959 67.0043C14.1785 67.0043 13.5859 67.6403 13.5859 68.4786C13.5859 69.0856 13.6293 69.1434 15.725 71.2102C18.2832 73.7395 18.7168 73.9996 20.5234 73.9996C22.3734 74.0141 23.125 73.595 25.3941 71.3114C27.5621 69.1145 27.9668 68.3918 27.9523 66.7153C27.9523 65.9637 27.8512 65.3856 27.6344 64.8364L27.3164 64.0414L30.0914 61.2664C31.9125 59.4309 33.0398 58.4192 33.3434 58.318C33.6613 58.2168 34.9766 58.1879 37.2457 58.2457L40.6855 58.3325L43.6195 61.2664L46.5535 64.2004L46.3078 64.8364C46.1633 65.2121 46.0621 65.9348 46.0477 66.5707C46.0332 68.2762 46.4957 69.1 48.8082 71.3547C51.0773 73.5805 51.5832 73.8551 53.332 73.8696C55.5867 73.8696 54.9219 74.4043 64.5043 64.8508C74.1734 55.2106 73.7832 55.6875 73.7832 53.4907C73.7832 52.2911 73.7398 52.1176 73.2918 51.2938C72.9449 50.6434 72.2801 49.8774 70.9648 48.6055C69.4328 47.0879 68.9992 46.7555 68.2766 46.4809C67.2215 46.0907 65.675 46.0618 64.7645 46.4231L64.143 46.6688L61.7438 44.2696L59.359 41.8848L59.9082 41.1332C60.1973 40.7285 60.573 39.9914 60.732 39.5C61.4691 37.1731 60.284 34.5426 58.0293 33.4875C57.668 33.3141 57.2777 33.184 57.1477 33.184C56.9887 33.184 56.9453 33.0973 57.032 32.8661C57.2055 32.3024 57.1043 30.6403 56.8586 29.9899C56.3094 28.5879 55.0375 27.3305 53.7656 26.9547L53.2598 26.7957V25.4082C53.2598 24.1653 53.2164 23.9051 52.8551 23.1825C52.3492 22.1707 51.1352 21.0289 50.1957 20.6821L49.4875 20.4364L49.502 19.1067C49.502 17.9793 49.4441 17.6758 49.1262 16.9821C48.2445 15.1032 46.8281 14.1926 44.4434 13.9614C43.6484 13.8891 40.9457 13.4411 38.4453 12.9496C33.4301 11.9813 32.0426 11.8368 31.1176 12.1403ZM36.7109 15.5801C38.5031 15.9125 39.9918 16.2016 40.0352 16.2305C40.0641 16.2594 39.2547 17.1266 38.2285 18.1528L36.3641 20.0172L35.7859 19.6993C34.8754 19.2078 32.7941 17.0543 32.3316 16.1293C32.1148 15.6957 31.9414 15.2043 31.9414 15.0598C31.9414 14.8141 32.0281 14.7996 32.7074 14.8719C33.1121 14.9297 34.9188 15.2332 36.7109 15.5801ZM28.9062 15.8403C29.0219 15.8981 29.2387 16.2594 29.3687 16.6352C30.1926 18.861 32.9531 21.636 35.468 22.7778C36.3063 23.1535 36.4219 23.2692 36.552 23.7461C36.8555 24.8446 36.1039 26.1309 35.0488 26.3332C33.8203 26.5645 33.7191 26.4922 29.8746 22.6621C27.8945 20.6965 26.1891 18.9188 26.0734 18.702C25.7844 18.1383 25.8133 17.1555 26.1602 16.5918C26.6949 15.7246 28.0246 15.3633 28.9062 15.8403ZM45.1949 17.011C45.8164 17.2422 46.3801 17.8637 46.5535 18.4707C46.8137 19.468 46.568 19.916 44.6602 21.8383C42.9691 23.5582 42.9258 23.6161 42.9258 24.252C42.9258 25.1192 43.4605 25.6684 44.3422 25.6684C44.9059 25.6684 45.0359 25.5817 46.0766 24.5844C47.2328 23.486 47.7098 23.2114 48.3891 23.2114C48.9672 23.2114 49.8777 23.8039 50.1668 24.3676C50.7883 25.5383 50.3836 26.4489 48.4035 28.3422C47.7387 28.9782 47.0738 29.6575 46.9438 29.8598C46.2934 30.7993 46.9727 32.0278 48.1289 32.0278C48.6781 32.0278 48.8227 31.941 49.9211 30.886C50.7016 30.1344 51.2652 29.7153 51.5832 29.643C52.566 29.4262 53.5344 29.8743 53.9824 30.727C54.2426 31.2184 54.2715 32.2012 54.0402 32.6493C53.9535 32.8227 53.173 33.6899 52.3059 34.5715C50.8172 36.0891 50.7305 36.2047 50.7305 36.7684C50.7305 37.5778 51.1785 38.0836 51.9879 38.1993C52.5805 38.2715 52.6238 38.2571 53.5777 37.3465C55.1098 35.8723 55.8613 35.6266 56.9598 36.2481C57.7258 36.6817 58.1594 37.5778 58.0293 38.416C57.9281 38.9653 57.6824 39.2688 55.8469 41.1477C53.8668 43.1567 53.7656 43.2868 53.7656 43.836C53.7656 44.7754 54.6473 45.4981 55.5434 45.2668C55.7313 45.2235 56.1938 44.92 56.5695 44.5875L57.2633 43.9805L59.5902 46.3075L61.9316 48.6489L55.2398 55.3262L48.5625 62.018L46.1777 59.6332L43.7785 57.234L45.0938 55.9332C46.4813 54.5457 46.6113 54.2567 46.1922 53.4328C45.9465 52.9848 45.4117 52.6957 44.7758 52.6957C44.4289 52.6957 44.1254 52.8981 43.3016 53.7075C41.6105 55.3407 40.7578 55.5575 36.9855 55.3118C34.4562 55.1528 33.0109 55.2684 31.9703 55.7309C31.4645 55.9477 30.525 56.8004 28.2992 59.0118L25.3074 61.9891L18.659 55.3696C14.9879 51.7274 11.9961 48.6778 11.9961 48.5911C11.9961 48.5043 13.0367 47.3914 14.2941 46.134L16.5922 43.836L17.3004 44.1395C18.7457 44.761 20.3066 44.6743 21.7375 43.9082C23.0094 43.2145 24.05 41.7258 24.2379 40.295C24.3391 39.5434 24.4547 39.3989 25.0328 39.3989C25.741 39.3989 26.9984 38.8207 27.7355 38.1559C28.5883 37.3899 29.1809 36.2481 29.3254 35.1786L29.4121 34.4125L30.1781 34.3258C31.2477 34.1813 32.3895 33.5887 33.1555 32.736C33.8203 31.9989 34.3984 30.7414 34.3984 30.0332C34.3984 29.4551 34.543 29.3395 35.3379 29.2239C36.9422 29.0215 38.3875 27.8797 39.1391 26.2754C39.6594 25.1481 39.6738 23.5004 39.168 22.3731L38.8355 21.5926L40.9168 19.5114C43.4461 16.9821 44.0965 16.5918 45.1949 17.011ZM24.6859 22.0407C25.1918 22.1996 30.1203 26.7957 31.0164 27.9664C32.1727 29.4696 31.2477 31.4496 29.4121 31.4496C29.123 31.4496 28.7473 31.3774 28.5738 31.2907C28.4004 31.2039 26.9117 29.7875 25.2496 28.1399C21.9977 24.9024 21.8098 24.6422 22.0988 23.5293C22.2723 22.8934 22.8938 22.243 23.5008 22.0551C24.0645 21.8961 24.1367 21.8961 24.6859 22.0407ZM20.957 28.4145C21.6074 28.5879 26.2324 33.184 26.377 33.8055C26.5215 34.3836 26.377 35.2653 26.0734 35.6844C25.3797 36.6239 24.0066 36.7973 23.0383 36.0891C22.1855 35.4676 18.7168 31.8832 18.4422 31.3485C17.9363 30.3368 18.3555 29.0938 19.3961 28.5735C20.1043 28.2266 20.2488 28.2121 20.957 28.4145ZM18.5867 36.0746C19.1215 36.2914 20.957 38.0692 21.1883 38.6328C21.8965 40.295 20.4078 42.0149 18.6734 41.5379C17.9363 41.3356 15.9852 39.3844 15.7828 38.6473C15.3348 36.9852 16.968 35.4676 18.5867 36.0746ZM69.0281 50.8457C70.8781 52.7102 71.066 53.0137 70.8926 53.9676C70.8059 54.4301 69.8375 55.4707 62.7555 62.5528C58.3328 66.9899 54.5027 70.7188 54.257 70.8344C53.7078 71.0946 53.0863 71.109 52.6527 70.8633C52.4648 70.7621 51.6121 69.9672 50.7305 69.1145C49.0684 67.4524 48.7793 66.9754 48.9527 66.0793C49.0105 65.7325 50.6871 63.9692 57.0031 57.6243C61.3824 53.2305 65.1691 49.5016 65.4004 49.3571C65.675 49.1836 66.0941 49.0825 66.5566 49.0825H67.2648L69.0281 50.8457Z" fill="#4A4A4A"/>
<path d="M48.8227 48.2875C47.9988 48.75 47.8687 49.8484 48.548 50.5422C49.5742 51.5539 51.323 50.5133 50.875 49.1547C50.7883 48.8945 50.6004 48.5766 50.4559 48.4465C50.0801 48.0996 49.2852 48.0273 48.8227 48.2875Z" fill="#4A4A4A"/>
<path d="M9.59688 62.3648C9.42344 62.4371 9.14883 62.6828 8.96094 62.914C8.5418 63.4488 8.62852 64.3305 9.17773 64.793C10.0738 65.5734 11.5625 64.923 11.5625 63.7668C11.5625 62.8129 10.4352 62.018 9.59688 62.3648Z" fill="#4A4A4A"/>
</svg>

<svg xmlns="http://www.w3.org/2000/svg" width="74" height="74" fill="none"><path fill="#4A4A4A" d="m35.902.578-.492.491v3.628c0 3.96.058 4.278.795 4.61.694.318 1.344.16 1.836-.462.23-.275.26-.708.26-3.946 0-3.93-.044-4.249-.737-4.61-.65-.333-1.128-.246-1.662.289M12.27.94c-.332.332-.418.548-.418 1.04 0 .621.028.65 3.006 3.628l3.006 3.006h.665c.723 0 1.33-.448 1.445-1.055.145-.78-.159-1.185-3.107-4.12C13.962.564 13.904.52 13.31.52c-.491 0-.708.087-1.04.42M59.46.94c-.303.23-1.72 1.575-3.122 3.005-2.486 2.515-2.572 2.63-2.572 3.195 0 .419.1.708.375 1.026.318.375.477.448 1.041.448h.665l3.006-3.006C61.83 2.63 61.86 2.6 61.86 1.98c0-.492-.086-.708-.419-1.04-.563-.565-1.228-.565-1.98 0M31.118 12.14c-.318.101-.795.333-1.027.506-.404.275-.506.29-1.185.145-2.269-.492-4.813.94-5.636 3.165-.246.65-.304 1.07-.26 2.009l.043 1.17-.506.16c-.78.23-1.865.997-2.341 1.662-.824 1.127-1.041 1.777-1.041 3.223v1.315l-.766.318c-1.04.434-2.067 1.387-2.573 2.414-.39.751-.433.982-.433 2.21 0 1.2.043 1.46.39 2.111l.376.752-.593.26c-.91.404-2.038 1.619-2.428 2.616-.477 1.243-.448 2.731.072 3.873.217.477.593 1.084.853 1.344l.448.463-2.37 2.4c-2.082 2.066-2.428 2.37-2.746 2.312-1.648-.362-1.923-.39-2.718-.217-1.33.274-1.879.636-3.873 2.645-2.327 2.341-2.587 2.79-2.587 4.64 0 1.907.274 2.384 2.862 4.942 2.009 2.01 2.095 2.067 2.688 2.067.824 0 1.46-.593 1.46-1.373 0-.491-.16-.708-2.01-2.602-2.876-2.934-2.876-3.035-.245-5.68l1.763-1.763h.737c.65 0 .839.072 1.446.564.375.303 4.119 4.003 8.325 8.209 5.752 5.767 7.66 7.776 7.76 8.137.261.925 0 1.388-1.835 3.209-1.864 1.835-2.327 2.081-3.266 1.69-.246-.1-1.344-1.054-2.428-2.11-1.807-1.763-2.024-1.922-2.515-1.922-.78 0-1.373.636-1.373 1.475 0 .607.043.664 2.139 2.731 2.558 2.53 2.992 2.79 4.798 2.79 1.85.014 2.602-.405 4.871-2.689 2.168-2.197 2.573-2.92 2.558-4.596 0-.751-.1-1.33-.318-1.879l-.318-.795 2.775-2.775c1.822-1.835 2.949-2.847 3.252-2.948.318-.101 1.634-.13 3.903-.072l3.44.087 2.934 2.933 2.934 2.934-.246.636c-.145.376-.246 1.099-.26 1.735-.015 1.705.448 2.529 2.76 4.784 2.27 2.225 2.775 2.5 4.524 2.515 2.255 0 1.59.534 11.172-9.02 9.67-9.64 9.28-9.162 9.28-11.36 0-1.199-.044-1.372-.492-2.196-.347-.65-1.012-1.417-2.327-2.688-1.532-1.518-1.966-1.85-2.688-2.125-1.055-.39-2.602-.42-3.513-.058l-.621.246-2.4-2.4-2.384-2.384.55-.752c.288-.405.664-1.142.823-1.633.737-2.327-.448-4.957-2.703-6.013-.361-.173-.751-.303-.881-.303-.16 0-.203-.087-.116-.318.174-.564.072-2.226-.173-2.876-.55-1.402-1.822-2.66-3.093-3.035l-.506-.16v-1.387c0-1.243-.044-1.503-.405-2.226-.506-1.011-1.72-2.153-2.66-2.5l-.708-.246.015-1.33c0-1.127-.058-1.43-.376-2.124-.881-1.879-2.298-2.79-4.683-3.02-.795-.073-3.497-.52-5.998-1.012-5.015-.969-6.402-1.113-7.327-.81m5.593 3.44c1.792.332 3.28.622 3.324.65.03.03-.78.897-1.806 1.923l-1.865 1.864-.578-.318c-.91-.491-2.992-2.645-3.454-3.57-.217-.433-.39-.925-.39-1.07 0-.245.086-.26.765-.187.405.058 2.212.361 4.004.708m-7.805.26c.116.058.333.42.463.795.824 2.226 3.584 5.001 6.099 6.143.838.376.954.491 1.084.968.303 1.099-.448 2.385-1.503 2.587-1.229.232-1.33.16-5.174-3.67-1.98-1.966-3.686-3.744-3.802-3.961-.289-.564-.26-1.547.087-2.11.535-.867 1.865-1.229 2.746-.752m16.289 1.171c.621.231 1.185.853 1.358 1.46.26.997.015 1.445-1.893 3.367-1.69 1.72-1.734 1.778-1.734 2.414 0 .867.535 1.416 1.416 1.416.564 0 .694-.086 1.735-1.084 1.156-1.098 1.633-1.373 2.312-1.373.578 0 1.489.593 1.778 1.157.621 1.17.217 2.08-1.764 3.974-.664.636-1.33 1.316-1.46 1.518-.65.94.03 2.168 1.186 2.168.55 0 .694-.087 1.792-1.142.78-.752 1.344-1.17 1.662-1.243.983-.217 1.951.231 2.4 1.084.26.491.289 1.474.057 1.922-.087.174-.867 1.04-1.734 1.922-1.489 1.518-1.575 1.634-1.575 2.197 0 .81.447 1.316 1.257 1.431.593.073.636.058 1.59-.852 1.532-1.475 2.283-1.72 3.382-1.099.766.434 1.2 1.33 1.07 2.168-.102.55-.348.853-2.183 2.732-1.98 2.009-2.081 2.139-2.081 2.688 0 .94.881 1.662 1.777 1.43.188-.042.65-.346 1.026-.678l.694-.608 2.327 2.328 2.342 2.34-6.692 6.678-6.678 6.692-2.384-2.385-2.4-2.399 1.316-1.3c1.387-1.388 1.517-1.677 1.098-2.501-.245-.448-.78-.737-1.416-.737-.347 0-.65.202-1.474 1.012-1.691 1.633-2.544 1.85-6.316 1.604-2.53-.16-3.975-.044-5.016.419-.505.217-1.445 1.07-3.67 3.28l-2.993 2.978-6.648-6.62c-3.671-3.642-6.663-6.691-6.663-6.778s1.04-1.2 2.298-2.457l2.298-2.298.708.303c1.446.622 3.007.535 4.438-.23 1.271-.694 2.312-2.183 2.5-3.614.101-.752.217-.896.795-.896.708 0 1.965-.578 2.702-1.243.853-.766 1.446-1.908 1.59-2.977l.087-.767.766-.086c1.07-.145 2.211-.737 2.978-1.59.664-.737 1.242-1.995 1.242-2.703 0-.578.145-.694.94-.81 1.604-.201 3.05-1.343 3.801-2.948.52-1.127.535-2.775.029-3.902l-.332-.78 2.08-2.082c2.53-2.529 3.18-2.92 4.279-2.5m-20.51 5.03c.507.159 5.435 4.755 6.331 5.925 1.157 1.504.232 3.484-1.604 3.484-.289 0-.665-.073-.838-.16-.174-.086-1.662-1.502-3.324-3.15-3.252-3.238-3.44-3.498-3.151-4.61.173-.637.795-1.287 1.402-1.475.563-.159.636-.159 1.185-.014m-3.728 6.374c.65.173 5.275 4.769 5.42 5.39.145.579 0 1.46-.304 1.88-.693.939-2.066 1.112-3.035.404-.852-.621-4.321-4.206-4.596-4.74-.506-1.012-.087-2.255.954-2.776.708-.346.853-.36 1.561-.159m-2.37 7.66c.535.216 2.37 1.994 2.601 2.558.709 1.662-.78 3.382-2.515 2.905-.737-.202-2.688-2.154-2.89-2.89-.448-1.663 1.185-3.18 2.804-2.573m50.441 14.77c1.85 1.865 2.038 2.169 1.865 3.123-.087.462-1.055 1.503-8.138 8.585-4.422 4.437-8.252 8.166-8.498 8.281-.55.26-1.17.275-1.604.03-.188-.102-1.04-.897-1.922-1.75-1.663-1.662-1.952-2.139-1.778-3.035.057-.346 1.734-2.11 8.05-8.455 4.38-4.394 8.166-8.122 8.397-8.267.275-.173.694-.274 1.157-.274h.708z"/><path fill="#4A4A4A" d="M48.823 48.288c-.824.462-.954 1.56-.275 2.254 1.026 1.012 2.775-.029 2.327-1.387-.087-.26-.275-.578-.42-.709-.375-.346-1.17-.419-1.632-.158M9.597 62.365c-.174.072-.448.318-.636.549-.42.535-.332 1.416.217 1.879.896.78 2.384.13 2.384-1.026 0-.954-1.127-1.749-1.965-1.402"/></svg>
